kora/panel/16/motrix-tray-active.svg

<svg xmlns="http://www.w3.org/2000/svg" width="16" height="16" viewBox="0 0 16 16">
 <defs>
  <style id="current-color-scheme" type="text/css">
   .ColorScheme-Text { color:#dfdfdf; } .ColorScheme-Highlight { color:#4285f4; } .ColorScheme-NeutralText { color:#ff9800; } .ColorScheme-PositiveText { color:#4caf50; } .ColorScheme-NegativeText { color:#f44336; }
  </style>
 </defs> 
 <path style="opacity:0.3;fill:currentColor" class="ColorScheme-Text" d="m1.875 1c-.485 0-.875.39-.875.875v12.25c0 .485.39.875.875.875h12.25c.485 0 .875-.39.875-.875v-12.25c0-.485-.39-.875-.875-.875h-2.125v2.299c0 .388-.35.701-.754.701h-6.492c-.404 0-.754-.313-.754-.701v-2.299z" />
 <path style="fill:currentColor" class="ColorScheme-Highlight" d="m5 2v1h2v-1zm4 0v1h2v-1z"/>
 <path style="fill:currentColor" class="ColorScheme-Text" d="m3 11h3c.554 0 1 .446 1 1v2h-1v-2h-1v2h-1v-2h-1v2h-1v-2c0-.554.446-1 1-1zm8 0h2c.554 0 1 .446 1 1v1c0 .554-.446 1-1 1h-2c-.554 0-1-.446-1-1v-1c0-.554.446-1 1-1zm-2.5 1c.277 0 .5.223.5.5s-.223.5-.5.5-.5-.223-.5-.5.223-.5.5-.5zm2.5 0v1h2v-1z"/>
</svg>

<svg xmlns="http://www.w3.org/2000/svg" width="16" height="16" version="1.1">
 <defs>
  <style id="current-color-scheme" type="text/css">
   .ColorScheme-Text { color:#dfdfdf; } .ColorScheme-Highlight { color:#4285f4; }
  </style>
 </defs>
 <path style="fill:currentColor" class="ColorScheme-Text" d="M 1.875 1 C 1.39025 1 1 1.39025 1 1.875 L 1 14.125 C 1 14.60975 1.39025 15 1.875 15 L 14.125 15 C 14.60975 15 15 14.60975 15 14.125 L 15 1.875 C 15 1.39025 14.60975 1 14.125 1 L 12 1 L 12 3.2988281 C 12 3.6866281 11.650052 4 11.246094 4 L 4.7539062 4 C 4.3499485 4 4 3.6866281 4 3.2988281 L 4 1 L 1.875 1 z M 3 11 L 6 11 C 6.554 11 7 11.446 7 12 L 7 13 L 7 14 L 6 14 L 6 12 L 5 12 L 5 14 L 4 14 L 4 12 L 3 12 L 3 14 L 2 14 L 2 13 L 2 12 C 2 11.446 2.446 11 3 11 z M 11 11 L 13 11 C 13.554 11 14 11.446 14 12 L 14 13 C 14 13.554 13.554 14 13 14 L 11 14 C 10.446 14 10 13.554 10 13 L 10 12 C 10 11.446 10.446 11 11 11 z M 8.5 12 C 8.777 12 9 12.223 9 12.5 C 9 12.777 8.777 13 8.5 13 C 8.223 13 8 12.777 8 12.5 C 8 12.223 8.223 12 8.5 12 z M 11 12 L 11 13 L 13 13 L 13 12 L 11 12 z"/>
 <path style="fill:currentColor" class="ColorScheme-Highlight" d="M 5 2 L 5 3 L 7 3 L 7 2 L 5 2 z M 9 2 L 9 3 L 11 3 L 11 2 L 9 2 z"/>
</svg>
